projects/xregistry/stacked/color/xregistry-stacked-color.svg

<?xml version="1.0" encoding="utf-8"?>
<!-- Generator: Adobe Illustrator 28.2.0, SVG Export Plug-In . SVG Version: 6.00 Build 0)  -->
<svg version="1.1" id="Layer_1" xmlns="http://www.w3.org/2000/svg" xmlns:xlink="http://www.w3.org/1999/xlink" x="0px" y="0px"
	 width="800px" height="638.8px" viewBox="0 0 800 638.8" style="enable-background:new 0 0 800 638.8;" xml:space="preserve">
<style type="text/css">
	.st0{fill:#0066FF;}
	.st1{fill:#FFFFFF;}
</style>
<g>
	<g>
		<path d="M199.5,548.7h-86.7v-21.6h86.7V548.7z M199.5,593.6h-86.7V572h86.7V593.6z M199.5,638.4h-86.7v-21.6h86.7V638.4z"/>
		<path d="M311,527.1v21.6h-39c0,0-30.1,1.8-30.1,34.1c0,32.3,30.1,34.1,30.1,34.1h17.4v-40.7H311v40.7v21.6h-21.6H271
			c0,0-50.9-1.6-50.9-55.7c0-54.1,50.9-55.7,50.9-55.7H311z"/>
		<rect x="331.4" y="527.4" width="21.6" height="111.3"/>
		<path d="M466.1,527.1v21.6h-57c0,0-14-0.2-14,11.6c0,11.8,14,11.6,14,11.6h28.5c0,0,32.7,0.7,32.7,33.2
			c0,32.5-32.7,33.2-32.7,33.2h-60.1v-21.6h57c0,0,14,0.2,14-11.6c0-11.8-14-11.6-14-11.6H406c0,0-32.7-0.7-32.7-33.2
			c0-32.5,32.7-33.2,32.7-33.2H466.1z"/>
		<polygon points="526.2,638.4 526.2,548.7 490.9,548.7 490.9,527.1 526.2,527.1 547.9,527.1 583.2,527.1 583.2,548.7 547.9,548.7 
			547.9,638.4 		"/>
		<path d="M671.4,638.4l-22.3-44.9h-23.9v44.9h-21.6v-60.8h0.1V572h54c0,0,14,0.2,14-11.6s-14-11.6-14-11.6h-54.1v-21.6h57.1
			c0,0,32.7,0.7,32.7,33.2c0,19.7-12,27.7-21.5,31l23.4,47.1H671.4z"/>
		<polygon points="724.8,527.1 751.2,573.5 777.5,527.1 800,527.1 762,598.7 762,638.4 740.4,638.4 740.4,598.7 702.3,527.1 		"/>
		<path d="M68.3,638.4h23.9l-23.4-47.1c9.5-3.3,21.5-11.3,21.5-31c0-32.5-32.7-33.2-32.7-33.2H0.5v21.6h54c0,0,14-0.2,14,11.6
			s-14,11.6-14,11.6h-0.2L44,589.6L68.3,638.4z"/>
		<polygon class="st0" points="54.9,572 39.3,572 37.3,575.4 27.5,592.1 15.6,572 0,572 19.6,605.4 0,638.8 15.6,638.8 27.5,618.6 
			39.3,638.8 54.9,638.8 35.3,605.4 44.4,589.8 		"/>
	</g>
	<g>
		<path d="M491.8,460.7h98.8l-96.7-194.8c39.1-13.5,88.9-46.7,88.9-128.3C582.8,3,447.7,0,447.7,0H211.3v89.4H435
			c0,0,57.9-0.8,57.9,48.1c0,48.9-57.9,48.1-57.9,48.1h-0.7l-42.9,72.9L491.8,460.7z"/>
		<polygon class="st0" points="435.5,185.6 371.1,185.6 362.9,199.6 322.4,268.5 273.7,185.6 209.4,185.6 290.2,323.1 209.4,460.7 
			273.7,460.7 322.4,377.8 371.1,460.7 435.5,460.7 354.6,323.1 392.4,258.9 		"/>
	</g>
</g>
</svg>

<svg width="800" height="639" viewBox="0 0 800 639" fill="none" xmlns="http://www.w3.org/2000/svg">
<g clip-path="url(#clip0_1_169)">
<path d="M199.5 548.7H112.8V527.1H199.5V548.7ZM199.5 593.6H112.8V572H199.5V593.6ZM199.5 638.4H112.8V616.8H199.5V638.4Z" fill="black"/>
<path d="M311 527.1V548.7H272C272 548.7 241.9 550.5 241.9 582.8C241.9 615.1 272 616.9 272 616.9H289.4V576.2H311V616.9V638.5H289.4H271C271 638.5 220.1 636.9 220.1 582.8C220.1 528.7 271 527.1 271 527.1H311Z" fill="black"/>
<path d="M353 527.4H331.4V638.7H353V527.4Z" fill="black"/>
<path d="M466.1 527.1V548.7H409.1C409.1 548.7 395.1 548.5 395.1 560.3C395.1 572.1 409.1 571.9 409.1 571.9H437.6C437.6 571.9 470.3 572.6 470.3 605.1C470.3 637.6 437.6 638.3 437.6 638.3H377.5V616.7H434.5C434.5 616.7 448.5 616.9 448.5 605.1C448.5 593.3 434.5 593.5 434.5 593.5H406C406 593.5 373.3 592.8 373.3 560.3C373.3 527.8 406 527.1 406 527.1H466.1Z" fill="black"/>
<path d="M526.2 638.4V548.7H490.9V527.1H526.2H547.9H583.2V548.7H547.9V638.4H526.2Z" fill="black"/>
<path d="M671.4 638.4L649.1 593.5H625.2V638.4H603.6V577.6H603.7V572H657.7C657.7 572 671.7 572.2 671.7 560.4C671.7 548.6 657.7 548.8 657.7 548.8H603.6V527.2H660.7C660.7 527.2 693.4 527.9 693.4 560.4C693.4 580.1 681.4 588.1 671.9 591.4L695.3 638.5H671.4V638.4Z" fill="black"/>
<path d="M724.8 527.1L751.2 573.5L777.5 527.1H800L762 598.7V638.4H740.4V598.7L702.3 527.1H724.8Z" fill="black"/>
<path d="M68.3 638.4H92.2L68.8 591.3C78.3 588 90.3 580 90.3 560.3C90.3 527.8 57.6 527.1 57.6 527.1H0.5L11.25 548.7H54.5C54.5 548.7 68.5 548.5 68.5 560.3C68.5 572.1 54.5 571.9 54.5 571.9H54.3L44 589.6L68.3 638.4Z" fill="black"/>
<path d="M54.9 572H39.3L37.3 575.4L27.5 592.1L15.6 572H0L19.6 605.4L0 638.8H15.6L27.5 618.6L39.3 638.8H54.9L35.3 605.4L44.4 589.8L54.9 572Z" fill="#0066FF"/>
<path d="M491.8 460.7H590.6L493.9 265.9C533 252.4 582.8 219.2 582.8 137.6C582.8 3 447.7 0 447.7 0H211.3L255.67 89.4H435C435 89.4 492.9 88.6 492.9 137.5C492.9 186.4 435 185.6 435 185.6H434.3L391.4 258.5L491.8 460.7Z" fill="black"/>
<path d="M435.5 185.6H371.1L362.9 199.6L322.4 268.5L273.7 185.6H209.4L290.2 323.1L209.4 460.7H273.7L322.4 377.8L371.1 460.7H435.5L354.6 323.1L392.4 258.9L435.5 185.6Z" fill="#0066FF"/>
</g>
<defs>
<clipPath id="clip0_1_169">
<rect width="800" height="638.8" fill="white"/>
</clipPath>
</defs>
</svg>
